!!!!SEGMENT: T417_Web-w12p8m1-9.krn
!!!COM: Webern, Anton (Friedrich Wilhelm von)
!!!OTL: No. 6: Fließend (Fluently)
!!!AGN: Instrumental
!!!AGN-sub: Chamber
!!!CNT: Austrian
!!!ODT: 1913
!!!OPR: Sechs Bagatellen (Six Bagatellen) for String Quartet, op. 9
!!!filename: T417_Web-w12p8m1-9.krn
**kern	**dynam	**kern	**dynam	**kern	**dynam	**kern	**dynam
*grp:A	*	*grp:A	*	*grp:A	*	*grp:A	*
*part4	*	*part3	*	*part2	*	*part1	*
*staff4	*	*staff3	*	*staff2	*	*staff1	*
*ICstr	*	*ICstr	*	*ICstr	*	*ICstr	*
*Icello	*	*Iviola	*	*Ivioln	*	*Ivioln	*
*I"Violoncello	*	*I"Viola	*	*I"Violin II	*	*I"Violin I	*
*I'Vc.	*	*I'Vla.	*	*I'Vln. II	*	*I'Vln. I	*
*clefF4	*	*clefC3	*	*clefG2	*	*clefG2	*
*k[]	*	*k[]	*	*k[]	*	*k[]	*
*C:	*	*C:	*	*C:	*	*C:	*
*M3/4	*	*M3/4	*	*M3/4	*	*M3/4	*
=1	=1	=1	=1	=1	=1	=1	=1
!LO:TX:a:t=mit Dämpfer	!	!LO:TX:a:t=mit Dämpfer	!	!LO:TX:a:t=mit Dämpfer	!	!LO:TX:a:t=mit Dämpfer	!
!	!	!	!	!	!	!LO:TX:a:B:t=Fließend ([quarter] = ca 84)	!
4r	.	8r	.	8r	.	4r	.
!	!	!LO:N:head=dia:n=2	!	!	!	!	!
.	.	4En~`>o 4An	ppp <	4aan`~o	ppp <	.	.
8r	.	.	.	.	.	4bb-Xtt	ppp <
!LO:N:head=dia:n=2	!	!	!	!	!	!	!
4Cn`~o 4Fn	pp <	8r	[	8r	[	.	.
!	!	!LO:TX:b:t=am Steg	!	!LO:TX:b:t=am Steg	!	!	!
.	.	8ee-X`L	pp >	8ccc#X`L	pp >	8r	[
!	!	!	!	!	!	!LO:N:head=dia:n=2	!
8r	[	8ffn`J	]]	8bbn`J	]]	8f#X`> 8bno	pp
=2	=2	=2	=2	=2	=2	=2	=2
!LO:N:head=dia:n=2	!	!	!	!	!	!	!
4A-Xo` 4d-X	pp <	4r	.	4r	.	8r	.
!	!	!	!	!	!	!LO:TX:a:t=pizz.	!
.	[ > ]	.	.	.	.	8Gn~	.
*clefC4	*	*	*	*	*	*	*
*grp:B	*	*grp:A	*	*grp:A	*	*grp:A	*
!	!	!LO:TX:b:t=am Steg	!	!LO:TX:a:t=am Steg	!	!	!
12r	.	8ee-X~	pp <	8an`>~	pp <	8r	.
!LO:N:head=dia:n=2	!	!	!	!	!	!LO:TX:a:t=arco	!
12dn`~o 12gn	p >	.	.	.	.	.	.
.	.	8r	[	8r	[	8c#X`>N	pp
!	!	!	!	!	!	!LO:TX:B:a:t=rit.	!
12r	]	.	.	.	.	.	.
4r	]	4enTT	pp > ]	4r	.	4r	.
=3	=3	=3	=3	=3	=3	=3	=3
*grp:B	*	*grp:B	*	*grp:B	*	*grp:B	*
!	!	!LO:TX:b:t=am Steg	!	!	!	!LO:TX:a:B:t=tempo	!
!	!	!	!	!	!	!LO:TUP:a	!
12r	.	12r	.	12r	.	12r	.
!LO:N:head=dia:n=2	!	!	!	!LO:N:head=dia:n=2	!	!LO:N:head=dia:n=2	!
12Bn`~o 12en	pp <	12b-X~`	pp <	12fn~ 12b-X	pp <	12ccn~`o 12ffn	pp <
12r	[	12r	[	12r	[	12r	[
*grp:B	*	*grp:A	*	*grp:A	*	*grp:A	*
12r	.	8r	.	4ff#XTT	pp <	8r	.
!LO:N:head=dia:n=2	!	!	!	!	!	!	!
6bn^o 6een	p <	.	.	.	.	.	.
!	!	!LO:TX:a:t=arco	!	!	!	!LO:TX:a:t=pizz.	!
!	!	!LO:N:head=dia	!	!	!	!	!
.	.	8cn`o	p	.	.	8aan'	pp
*clefF4	*	*	*	*	*	*	*
*grp:A	*	*grp:A	*	*grp:A	*	*grp:A	*
!	!	!	!	!	!	!LO:TX:a:t=arco	!
.	[	.	.	.	.	.	.
8r	.	4r	.	4r	[	4G#X	p < [
(8qCC#X/ 8qAAn	p <	.	.	.	.	.	.
[8dno)L	.	.	.	.	.	.	.
!!linebreak:original
*	*	*clefG2	*	*	*	*	*
=4	=4	=4	=4	=4	=4	=4	=4
*	*	*	*	*tremolo	*	*	*
*grp:B	*	*grp:A	*	*grp:A	*	*grp:A	*
!LO:TUP:a	!	!	!	!LO:N:head=dia:n=2	!	!LO:TX:a:t=pizz.	!
!	!	!	!	!	!	!LO:TX:a:B:t=rit. – – –	!
12dL]	[	8r	.	32ee-X 32aa-XoLLL	p <	8r	.
.	.	.	.	32ee-X 32aa-Xo	.	.	.
.	.	.	.	32ee-X 32aa-Xo	.	.	.
12r	.	.	.	.	.	.	.
.	.	.	.	32ee-X 32aa-XoJJJ	.	.	.
.	.	(8bnL	p <	8r	[	8eeen~	pp
!LO:N:head=dia:n=2	!	!	!	!	!	!	!
12FFn`~oJ 12BB-X	p	.	.	.	.	.	.
!	!	!	!	!	!	!LO:TUP:a	!
*grp:A	*	*grp:A	*	*grp:A	*	*grp:B	*
8.r	.	8bb-X	[	16r	.	12r	.
.	.	.	.	8an`>~	ppp	.	.
!	!	!	!	!	!	!LO:TX:a:t=arco	!
.	.	.	.	.	.	12gg#X~`	<
.	.	8eenJ	>	.	.	.	.
.	.	.	.	.	.	12r	[
!LO:TX:a:t=pizz.	!	!	!	!	!	!	!
16FF#X'	pp	.	.	16r	.	.	.
*grp:A	*	*grp:A	*	*grp:B	*	*grp:A	*
4r	.	8gn)	.	12r	.	8r	.
.	.	.	]	6cn	pp <	.	.
!	!	!	!	!	!	!LO:TX:a:B:t=tempo	!
!	!	!	!	!	!	!LO:N:head=dia:n=2	!
.	.	8r	.	.	[[	[8ffn [8bb-Xo	p <
=5	=5	=5	=5	=5	=5	=5	=5
*grp:A	*	*grp:A	*	*grp:A	*	*grp:B	*
!	!	!	!	!LO:N:head=dia:n=2	!	!LO:TUP:a	!
4r	.	8r	.	4cc#X 4ff#Xo	f <	12ffL] 12bb-o]	[ f
.	.	.	.	.	.	12rdd	.
*	*	*clefC3	*	*	*	*	*
!	!	!LO:N:head=dia	!	!	!	!	!
!	!	!LO:TX:t=P:problem:cue pitches not shown here	!	!	!	!	!
.	.	8gn`o	f <	.	.	.	.
!	!	!	!	!	!	!LO:N:head=dia:n=2	!
.	.	.	[[	.	[	[12aanJ [12dddno	ff <
*clefC4	*	*	*	*	*	*	*
!LO:TX:b:t=am Steg	!	!	!	!	!	!	!
!LO:TX:a:rj:t=arco	!	!	!	!LO:TX:a:t=am Steg	!	!	!
!	!	!	!	!	!	!LO:N:head=dia:n=2	!
2a-XTT	f < [	8r	.	8r	.	8aa] 8dddo]	.
*	*	*	*	*	*	*	*
*	*	*tremolo	*	*	*	*	*
!	!	!LO:N:head=dia:n=2	!	!	!	!	!
.	.	32e-X 32a-XoLLL	sf <	32ggn 32fff#XLLL	sf <	8r	[
.	.	32e-X 32a-X	.	32ggn 32fff#X	.	.	.
.	.	32e-X 32a-X	.	32ggn 32fff#X	.	.	.
.	.	32e-X 32a-X	.	32ggn 32fff#X	.	.	.
*grp:A	*	*grp:A	*	*grp:A	*	*grp:A	*
.	.	32e-X 32a-X	.	32ggn 32fff#X	.	16r	.
.	.	32e-X 32a-X	.	32ggn 32fff#X	.	.	.
.	.	32e-X 32a-X	.	32ggn 32fff#X	.	16Bn~LL	f
.	.	32e-X 32a-X	.	32ggn 32fff#X	.	.	.
.	.	32e-X 32a-X	.	32ggn 32fff#X	.	16een~	<
.	.	32e-X 32a-X	.	32ggn 32fff#X	.	.	.
.	.	32e-X 32a-X	.	32ggn 32fff#X	.	[16cccn^JJ	[ sff
.	.	32e-X 32a-XJJJ	[[	32ggn 32fff#XJJJ	[[	.	.
*	*	*Xtremolo	*	*	*	*	*
=6	=6	=6	=6	=6	=6	=6	=6
!	!	!	!	!	!	!LO:TX:a:t=rit.	!
!	!	!	!	!	!	!LO:TX:a:i:t=(lang)	!
4r;	.	4r;	.	4r;	.	4.ccc;]	>
*grp:A	*	*grp:A	*	*grp:B	*	*grp:A	*
!	!	!LO:N:head=dia:n=2	!	!LO:TX:a:t=pizz.	!	!	!
8r	.	8C#X`>~o 8F#Xr 8cc#yy	ppp	12r	.	.	.
!	!	!	!	!LO:TX:a:i:t=sehr zart	!LO:DY:rj	!LO:TX:a:B:t=rit. – – –	!
.	.	.	.	12dn~L	ppp <	.	pp ]
*clefF4	*	*	*	*	*	*	*
!LO:TX:t=P:problem:cue pitches not shown here	!	!	!	!	!	!	!
!LO:SIC:v:t=Cautionary parentetical clef pitch not included	!	!	!	!	!	!	!
(4AAr 4EEnro 4eyy	pp >	8r	.	.	.	8r	.
.	.	.	.	12B-X~J	[ >	.	.
.	.	4r	.	8an~	.	16r	.
.	.	.	.	.	.	[8.f#X	pp <
*	*	*	*	*	*	*	*
.	ppp ]	.	.	.	]	.	.
*	*	*	*	*	*	*	*
8Fn)	.	.	.	8r	.	.	[[
!!pagebreak:original
=7	=7	=7	=7	=7	=7	=7	=7
!	!	!	!	!	!	!LO:TX:a:B:t=tempo	!
8r	.	8r	.	4r	.	4f#X]	>
4CCn~ 4E-X	pp <	4Bn~	pp <	.	.	.	.
!	!	!	!	!LO:TX:a:t=arco	!	!	!
.	.	.	.	12r	.	4r;	]
.	.	.	.	[6ggn;	p <	.	.
8r;	[	8r;	[	.	.	.	.
!	!	!	!	!	!	!LO:TX:a:B:t=rit.	!
4r	.	8r	.	4gg]	[	4r	.
.	.	8A-X`>~N	pp	.	> ]]	.	.
*clefC4	*	*	*	*	*	*	*
=8	=8	=8	=8	=8	=8	=8	=8
*grp:A	*	*grp:A	*	*grp:A	*	*grp:A	*
!LO:TX:b:t=am Steg	!	!	!	!	!	!	!
2.ddntt	pp	4r	.	4r	.	4r	.
*	*	*clefG2	*	*	*	*	*
!	!	!	!	!LO:N:head=dia:n=2	!	!LO:TX:a:t=am Griffbrett	!
.	.	4reenoN 4raanN 4eeeeyy	ppp	4renoN 4ranN 4eeeyy	ppp	8r	.
.	.	.	.	.	.	[4.cc#X	pp <
.	.	4r	]	4r	.	.	[[
=9	=9	=9	=9	=9	=9	=9	=9
!	!	!	!	!LO:TX:a:t=am Steg	!	!	!
8.r	.	4r	.	4ccnOOO	pp >	8cc#]	>
.	.	.	.	.	.	.	.
.	.	.	.	.	.	.	.
.	.	.	.	.	.	.	.
.	.	.	.	.	.	8r	]
.	.	.	.	.	.	.	.
!LO:TX:a:i:t=sehr zart	!	!	!	!	!	!	!
(16a#X	ppp	.	.	.	.	.	.
.	.	.	.	.	.	.	.
!	!	!	!	!LO:TUP:a:xbr	!	!LO:TX:a:t=am Steg	!
4bn)	>	4r	.	6ccOOO	.	4r	.
.	.	.	.	.	.	.	.
.	.	.	.	.	.	.	.
.	.	.	.	.	.	.	.
.	.	.	.	.	.	.	.
.	.	.	.	.	.	.	.
.	.	.	.	.	.	.	.
.	.	.	.	.	.	.	.
*	*	*	*	*Xtremolo	*	*	*
.	.	.	.	12r	]	.	.
*	*	*clefC3	*	*	*	*	*
!	!	!LO:TR:acc=n	!	!	!	!LO:TX:t=[quarter] = ca 42	!LO:DY:rj
4r	]	4gnTT	ppp >	4r	.	[8g#X~L	ppp < [
.	.	.	]]	.	.	8g#~J]	> ]
==	==	==	==	==	==	==	==
*-	*-	*-	*-	*-	*-	*-	*-
!!!system-decoration: [(s1,s2,s3,s4)]
!!!RDF**kern: > = above
!!!RDF**kern: < = below
!!!RDF**kern: O = tremolo
!!!RDF**kern: N = hairpin accent
!!!EED:Jason Lee
!!!EEV:2021/12/06
!!!EED2: Rafael Laurindo
!!!Suter_Work_ID: Web-12
!!!Suter_Example_Number: 417
!!!Suter_Example_ID: Web-12/8/1-9
!!!Premiere_Location: Donaueschingen,Germany
!!!Other_Tsigs: none
!!!Full_Unit_Duration: 0:28
!!!First_Publication_Year: 1924
!!!First_Public_Performance_Year: 1924
!!!Example_Total_Measures: 9
!!!Example_Timestamp_Duration: 28
!!!Example_Start_Tsig_Type: simple triple
!!!Example_Start_Tsig_Mean_Beat_Rate: 84
!!!Example_Start_Tsig_Beat_Rate: 84
!!!Example_Start_Tsig_Beat: quarter
!!!Example_Start_Tsig: 3/4
!!!Example_Start_Timestamp: 3:09
!!!Example_Start_Tempo_Expression: Fließend
!!!Example_Start_Notated_Beat_Rate: 84
!!!Example_Start_Notated_Beat: quarter
!!!Example_Start_Measure: 1
!!!Example_Metadata_Validated: Y
!!!Example_End_Timestamp: 3:38
!!!Example_End_Measure: 9
!!!Example_Dataset: T
!!!Editorial_Comments: Full Unit Duration calculated from Track 18 (3:09) to Track 18 (3:38) (https://ubc-nml3-naxosmusiclibrary-com.eu1.proxy.openathens.net/catalogue/item.asp?cid=9.80271). Example Start and End Time based on Track 18 (https://ubc-nml3-naxosmusiclibrary-com.eu1.proxy.openathens.net/catalogue/item.asp?cid=9.80271).
!!!Death_Place: Mittersill,Austria
!!!Death_Date: 15-Sep-1945
!!!Changing_Tsig: no
!!!Birth_Place: Vienna,Austria
!!!Birth_Date: 3-Dec-1883
!!!Audio_Example_Quarter_Note_Tempo:
!!!Audio_Example_Duration:
!!!EEV2: 2022/04/01
